svg/fluentui-system-icons/ic_fluent_text_position_square_right_16_regular.svg

<svg width="16" height="16" viewBox="0 0 16 16" fill="none" xmlns="http://www.w3.org/2000/svg">
<path d="M13.5 2C13.7761 2 14 2.22386 14 2.5C14 2.77614 13.7761 3 13.5 3H2.5C2.22386 3 2 2.77614 2 2.5C2 2.22386 2.22386 2 2.5 2H13.5ZM6 4.5C6.27614 4.5 6.5 4.72386 6.5 5C6.5 5.27614 6.27614 5.5 6 5.5H2.5C2.22386 5.5 2 5.27614 2 5C2 4.72386 2.22386 4.5 2.5 4.5H6ZM6.5 7.5C6.5 7.22386 6.27614 7 6 7H2.5C2.22386 7 2 7.22386 2 7.5C2 7.77614 2.22386 8 2.5 8H6C6.27614 8 6.5 7.77614 6.5 7.5ZM6 9.5C6.27614 9.5 6.5 9.72386 6.5 10C6.5 10.2761 6.27614 10.5 6 10.5H2.5C2.22386 10.5 2 10.2761 2 10C2 9.72386 2.22386 9.5 2.5 9.5H6ZM14 12.5C14 12.2239 13.7761 12 13.5 12H2.5C2.22386 12 2 12.2239 2 12.5C2 12.7761 2.22386 13 2.5 13H13.5C13.7761 13 14 12.7761 14 12.5ZM13 7C13 5.89543 12.1046 5 11 5C9.89543 5 9 5.89543 9 7V10.5C9 10.7761 8.77614 11 8.5 11C8.22386 11 8 10.7761 8 10.5V7C8 5.34315 9.34315 4 11 4C12.6569 4 14 5.34315 14 7V10.5C14 10.7761 13.7761 11 13.5 11C13.2239 11 13 10.7761 13 10.5V7Z" fill="#212121"/>
</svg>

<svg xmlns="http://www.w3.org/2000/svg" width="16" height="16"><path d="M13.5 2a.5.5 0 0 1 0 1h-11a.5.5 0 0 1 0-1h11ZM6 4.5a.5.5 0 0 1 0 1H2.5a.5.5 0 0 1 0-1H6Zm.5 3A.5.5 0 0 0 6 7H2.5a.5.5 0 0 0 0 1H6a.5.5 0 0 0 .5-.5Zm-.5 2a.5.5 0 0 1 0 1H2.5a.5.5 0 0 1 0-1H6Zm8 3a.5.5 0 0 0-.5-.5h-11a.5.5 0 0 0 0 1h11a.5.5 0 0 0 .5-.5ZM13 7a2 2 0 1 0-4 0v3.5a.5.5 0 0 1-1 0V7a3 3 0 0 1 6 0v3.5a.5.5 0 0 1-1 0V7Z"/></svg>
